X: 1
T:Kilworth Hills  "CCPB Sep-1995"
M:3/4
L:1/8
Q:80
C:PM G. S. McLennan
S:Retreat March
K:HP
|: {g}A3/2{d}c/2{gef}e2{A}e2|
{gfg}f3/2d/2{gef}e2c2|
{gde}d3/2c/2{G}A3{d}c|  !
{gef}e3/2c/2{gBd}B4|
{g}A3/2{d}c/2{gef}e2{A}e2|
{gfg}f3/2d/2{gef}e2c2|  !
{g}A3/2{d}c/2{gef}e3B|
{gde}d/2c3/2{G}A4:| |:
{g}f3/2e/2{g}f3{gf}g|  !
{ag}a3/2f/2{gef}e2c2|
{gde}d3/2c/2{G}A3{d}c|
{gef}e3/2c/2{gBd}B4|  !
{gef}e3/2d/2{gcd}c3d|
{g}e3/2f/2{gef}e2c2|
{g}A3/2{d}c/2{gef}e3B|  !
{gde}d/2c3/2{G}A4:| |:
{g}B3/2c/2{Gdc}d2{gdc}d2|
{gef}e3/2d/2{c}d2{e}c2|  !
{gcd}c2{GBG}A3{d}c|
{gef}e3/2c/2{gBd}B4|
{Gdc}d3/2e/2{g}f2{e}f2|  !
{gef}e3/2d/2{c}d2{e}c2|
{g}A3/2{d}c/2{gef}e3B|
{gde}d/2c3/2{G}A4:| |:  !
{ag}a3/2g/2{a}f3{gf}g|
{ag}a3/2f/2{gef}e2c2|
{g}f3/2e/2{g}c3f|  !
{gef}e3/2c/2{gBd}B4|
{gcd}c2{GBG}A3{d}c|
{g}e3/2f/2{gef}e2c2|  !
{g}A3/2{d}c/2{gef}e3B|
{gde}d/2c3/2{G}A4:|
